!!!COM: Charles Ives
!!!OTL: T260_Ive-w33b3p13m2-1hJm1-2
**kern	**dynam	**kern	**dynam	**kern	**dynam	**kern	**dynam	**kern	**dynam	**kern	**dynam	**kern	**dynam	**kern	**dynam	**kern	**dynam	**kern	**dynam	**kern	**dynam	**kern	**dynam	**kern	**dynam	**kern	**dynam	**kern	**dynam	**kern	**dynam	**kern	**dynam	**kern	**dynam	**kern	**dynam	**kern	**dynam	**kern	**dynam	**kern	**dynam	**kern	**dynam	**kern	**dynam	**kern	**dynam	**kern	**dynam	**kern	**dynam
*grp:A	*grp:A	*grp:A	*grp:A	*grp:A	*grp:A	*grp:A	*grp:A	*grp:A	*grp:A	*grp:A	*grp:A	*grp:A	*grp:A	*grp:A	*grp:A	*grp:A	*grp:A	*grp:A	*grp:A	*grp:A	*grp:A	*grp:A	*grp:A	*grp:B	*grp:B	*grp:A	*grp:A	*grp:A	*grp:A	*grp:A	*grp:A	*grp:A	*grp:A	*grp:A	*grp:A	*grp:A	*grp:A	*grp:A	*grp:A	*grp:A	*grp:A	*grp:A	*grp:A	*grp:A	*grp:A	*grp:A	*grp:A	*grp:A	*grp:A	*grp:A	*grp:A	*grp:A	*grp:A
*part27	*	*part26	*part26	*part25	*part25	*part24	*part24	*part23	*part23	*part22	*part22	*part21	*part21	*part20	*part20	*part19	*part19	*part18	*part18	*part17	*	*part16	*	*part15	*	*part14	*	*part13	*part13	*part12	*part12	*part11	*part11	*part10	*part10	*part9	*	*part8	*part8	*part7	*part7	*part6	*part6	*part5	*part5	*part4	*part4	*part3	*part3	*part2	*part2	*part1	*part1
*staff27	*	*staff26	*	*staff25	*	*staff24	*	*staff23	*	*staff22	*	*staff21	*	*staff20	*	*staff19	*	*staff18	*	*staff17	*	*staff16	*	*staff15	*	*staff14	*	*staff13	*	*staff12	*	*staff11	*	*staff10	*	*staff9	*	*staff8	*	*staff7	*	*staff6	*	*staff5	*	*staff4	*	*staff3	*	*staff2	*	*staff1	*
*I"Contrabass 2. div.	*	*I"Contrabass 1. div.	*	*I"Violoncello 2. div.	*	*I"Violoncello 1. div.	*	*I"Viola 2. div.	*	*I"Viola 1. div.	*	*I"Violin II 2. div.	*	*I"Violin II 1. div.	*	*I"Violin I 2. div.	*	*I"Violin I 1. div.	*	*I"Extra Violins	*	*I"Extra Violins	*	*I"Extra Violins	*	*I"Bass Drum	*	*I"Snare Drum	*	*I"Timpani	*	*I"Trombone 3	*	*I"Trombone 2	*	*I"Trombone 1	*	*I"Trumpet 1 in C	*	*I"Horns 2.4. in F	*	*I"Horns 1.3. in F	*	*I"Bassoon 2	*	*I"Bassoon 1	*	*I"Clarinet 1 in Bb	*	*I"Oboes 1.2.	*	*I"Flutes 1.2.	*
*I'Cb.	*	*I'Cb.	*	*I'Vc.	*	*I'Vc.	*	*I'Vla.	*	*I'Vla.	*	*I'Vln. 1	*	*I'Vln. 1	*	*I'Vln. 1	*	*I'Vln. 1	*	*I'Vln.	*	*I'Vln.	*	*I'Vln.	*	*I'B. D.	*	*I'S.D.	*	*I'Timp.	*	*I'3.Tbn.	*	*I'2.Tbn.	*	*I'1.Tbn.	*	*I'1.Tpt.	*	*I'2.4.Hn.	*	*I'1.3.Hn.	*	*I'2.Bsn.	*	*I'1.Bsn.	*	*I'1.Cl.	*	*I'1.2.Ob.	*	*I'1.2.Fl.	*
!!pagebreak:original
*	*	*	*	*	*	*	*	*	*	*	*	*	*	*	*	*	*	*	*	*	*	*	*	*	*	*stria1	*	*stria1	*	*	*	*	*	*	*	*	*	*	*	*	*	*	*	*	*	*	*	*	*	*	*	*	*
*clefF4	*	*clefF4	*	*clefF4	*	*clefF4	*	*clefC3	*	*clefC3	*	*clefG2	*	*clefG2	*	*clefG2	*	*clefG2	*	*clefG2	*	*clefG2	*	*clefG2	*	*clefX	*	*clefX	*	*clefF4	*	*clefF4	*	*clefF4	*	*clefF4	*	*clefG2	*	*clefG2	*	*clefG2	*	*clefF4	*	*clefF4	*	*clefG2	*	*clefG2	*	*clefG2	*
*ITrd7c12	*	*ITrd7c12	*	*	*	*	*	*	*	*	*	*	*	*	*	*	*	*	*	*	*	*	*	*	*	*	*	*	*	*	*	*	*	*	*	*	*	*	*	*ITrd4c7	*	*ITrd4c7	*	*	*	*	*	*ITrd1c2	*	*	*	*	*
*k[]	*	*k[]	*	*k[]	*	*k[]	*	*k[]	*	*k[]	*	*k[]	*	*k[]	*	*k[]	*	*k[]	*	*k[]	*	*k[]	*	*k[]	*	*k[]	*	*k[]	*	*k[]	*	*k[]	*	*k[]	*	*k[]	*	*k[]	*	*k[b-]	*	*k[b-]	*	*k[]	*	*k[]	*	*k[b-e-]	*	*k[]	*	*k[]	*
*	*	*	*	*	*	*	*	*	*	*	*	*	*	*	*	*	*	*	*	*	*	*	*	*	*	*C:	*	*C:	*	*	*	*	*	*	*	*	*	*	*	*	*	*	*	*	*	*	*	*	*	*	*	*	*
*M4/4	*	*M4/4	*	*M4/4	*	*M4/4	*	*M4/4	*	*M4/4	*	*M4/4	*	*M4/4	*	*M4/4	*	*M4/4	*	*M4/4	*	*M4/4	*	*M4/4	*	*M4/4	*	*M4/4	*	*M4/4	*	*M4/4	*	*M4/4	*	*M4/4	*	*M4/4	*	*M4/4	*	*M4/4	*	*M4/4	*	*M4/4	*	*M4/4	*	*M4/4	*	*M4/4	*
!	!	!	!	!LO:TX:b:i:t=[marcato]	!	!LO:TX:b:i:t=[marcato]	!	!LO:TX:b:i:t=[marcato]	!	!LO:TX:b:i:t=[marcato]	!	!LO:TX:b:i:t=[marcato]	!	!LO:TX:b:i:t=[marcato]	!	!LO:TX:b:i:t=[marcato]	!	!LO:TX:b:i:t=[marcato]	!	!LO:TX:a:t=[con sord.]	!	!LO:TX:a:t=[con sord.]	!	!LO:TX:a:t=[con sord.]	!	!	!	!	!	!	!	!	!	!	!	!	!	!	!	!	!	!	!	!	!	!	!	!	!	!	!	!	!
!	!	!	!	!	!	!	!	!	!	!	!	!	!	!	!	!	!	!	!	!	!	!	!	!	!	!	!	!LO:TX:t=[quarter]=106	!	!	!	!	!	!	!	!	!	!	!	!LO:TX:a:t=[unis.]	!	!LO:TX:a:t=[unis.]	!	!	!	!	!	!	!	!	!	!LO:TX:t=[quarter]=106	!
!	!LO:DY:ed=brack	!	!LO:DY:ed=brack	!	!LO:DY:ed=brack	!	!LO:DY:ed=brack	!	!LO:DY:ed=brack	!	!LO:DY:ed=brack	!	!LO:DY:ed=brack	!	!LO:DY:ed=brack	!	!LO:DY:ed=brack	!	!LO:DY:ed=brack	!	!LO:DY:ed=brack	!	!LO:DY:ed=brack	!LO:TX:t=P:problem:Hanging slur not implemented yet	!LO:DY:ed=brack	!	!	!	!	!	!	!	!	!	!LO:DY:ed=brack	!	!	!	!	!	!LO:DY:ed=brack	!	!LO:DY:ed=brack	!	!LO:DY:ed=brack	!	!LO:DY:ed=brack	!	!	!	!	!	!
2AAA	ff	2AA	ff	16FnLL	ff	16FnLL	ff	16c#X'LL	ff	16c#X'LL	ff	16an'LL	ff	16an'LL	ff	16ffn'LL	ff	16ffn'LL	ff	][1c#X	ppp	][1d#X	ppp	8B#XL	ppp	2r	.	8r	.	2r	.	2r	.	16F'LL	f <	2r	.	1r	.	16F'LL	ff	16c#X'LL	ff	16FFLL	f	16FFLL	f	1r	.	1r	.	1r	.
.	.	.	.	16F#X'J	.	16F#X'J	.	16d#X'J	.	16d#X'J	.	16a'J	.	16a'J	.	16ccn'J	.	16ee-X'J	.	.	.	.	.	.	.	.	.	.	.	.	.	.	.	16F#X'J	.	.	.	.	.	16F#X'J	.	16d#X'J	.	16FF#X'J	.	16FF#X'J	.	.	.	.	.	.	.
.	.	.	.	8G'J	.	8G'J	.	8fn'J	.	8fn'J	.	8bn'J	.	8ee-X'J	.	8cc#X'J	.	8bbn'J	.	.	.	.	.	[8c#XJ)	.	.	.	8Re'/L	pp	.	.	.	.	8G'J	.	.	.	.	.	8G'J	.	8f'J	.	8GG'J	.	8GG'J	.	.	.	.	.	.	.
=-	=-	=-	=-	=-	=-	=-	=-	=-	=-	=-	=-	=-	=-	=-	=-	=-	=-	=-	=-	=-	=-	=-	=-	=	=-	=-	=-	=-	=-	=-	=-	=-	=-	=-	=-	=-	=-	=-	=-	=-	=-	=-	=-	=-	=-	=-	=-	=-	=-	=-	=-	=-	=-
.	.	.	.	8G#X'L	.	8G#X'L	.	8gn'L	.	8gn'L	.	8ff'L	.	8ff'L	.	8eeen'L	.	8eeen'L	.	.	.	.	.	10c#L]	.	.	.	8r	.	.	.	.	.	8G#X'L	.	.	.	.	.	8G#X'L	.	8g'L	.	8GG#X'L	.	8GG#X'L	.	.	.	.	.	.	.
.	.	.	.	.	.	.	.	.	.	.	.	.	.	.	.	.	.	.	.	.	.	.	.	(<10d	.	.	.	.	.	.	.	.	.	.	.	.	.	.	.	.	.	.	.	.	.	.	.	.	.	.	.	.	.
.	.	.	.	8An'J	.	8An'J	.	(16g#XL	.	(16g#XL	.	8d'J	.	8f#X'J	.	8ccn'J 8een	.	8ddd'J	.	.	.	.	.	.	.	.	.	8Re'/J	.	.	.	.	.	8A'J	.	.	.	.	.	8A'J	.	(16g#XL	.	8AA'J	.	8AA'J	.	.	.	.	.	.	.
.	.	.	.	.	.	.	.	16aJJ)	.	16aJJ)	.	.	.	.	.	.	.	.	.	.	.	.	.	.	.	.	.	.	.	.	.	.	.	.	.	.	.	.	.	.	.	16aJJ)	.	.	.	.	.	.	.	.	.	.	.
.	.	.	.	.	.	.	.	.	.	.	.	.	.	.	.	.	.	.	.	.	.	.	.	10c#X	.	.	.	.	.	.	.	.	.	.	.	.	.	.	.	.	.	.	.	.	.	.	.	.	.	.	.	.	.
*	*	*	*	*	*	*	*	*	*	*	*	*	*	*	*	*	*	*	*	*	*	*	*	*	*	*	*	*	*	*tremolo	*	*	*	*	*	*	*	*	*	*	*	*	*	*	*	*	*	*	*	*	*	*	*
!	!	!	!	!	!	!	!	!	!	!	!	!	!	!	!	!	!	!	!	!	!	!	!	!	!	!	!	!	!	!	!	!	!	!	!	!	!LO:DY:ed=brack	!	!	!	!	!	!	!	!	!	!	!	!	!	!	!	!
(4.FFF#X	.	2FFF#X	.	(8.BB^^L	sf	(8.E^^L	sf	(8.En^^L	sf	(8.An^^L	sf	(8.d^^L	sf	(8.g^^L	sf	(8.d^^L 8.cc	sf	(8.d^^L 8.cc	sf	.	.	.	.	.	.	4r	.	8r	.	32FLLL	mf	(8.BBL	ff	(8.EL	ff [	(8.EL	ff	.	.	8r	.	8r	.	2FF#X	.	2FF#X	.	.	.	.	.	.	.
.	.	.	.	.	.	.	.	.	.	.	.	.	.	.	.	.	.	.	.	.	.	.	.	.	.	.	.	.	.	32F	.	.	.	.	.	.	.	.	.	.	.	.	.	.	.	.	.	.	.	.	.	.	.
.	.	.	.	.	.	.	.	.	.	.	.	.	.	.	.	.	.	.	.	.	.	.	.	10B#X	.	.	.	.	.	.	.	.	.	.	.	.	.	.	.	.	.	.	.	.	.	.	.	.	.	.	.	.	.
.	.	.	.	.	.	.	.	.	.	.	.	.	.	.	.	.	.	.	.	.	.	.	.	.	.	.	.	.	.	32F	.	.	.	.	.	.	.	.	.	.	.	.	.	.	.	.	.	.	.	.	.	.	.
.	.	.	.	.	.	.	.	.	.	.	.	.	.	.	.	.	.	.	.	.	.	.	.	.	.	.	.	.	.	32F	.	.	.	.	.	.	.	.	.	.	.	.	.	.	.	.	.	.	.	.	.	.	.
.	.	.	.	.	.	.	.	.	.	.	.	.	.	.	.	.	.	.	.	.	.	.	.	.	.	.	.	8Re'/	.	32F	.	.	.	.	.	.	.	.	.	8BX^^	ff	8BX^^	ff	.	.	.	.	.	.	.	.	.	.
.	.	.	.	.	.	.	.	.	.	.	.	.	.	.	.	.	.	.	.	.	.	.	.	[10c#J	.	.	.	.	.	.	.	.	.	.	.	.	.	.	.	.	.	.	.	.	.	.	.	.	.	.	.	.	.
.	.	.	.	.	.	.	.	.	.	.	.	.	.	.	.	.	.	.	.	.	.	.	.	.	.	.	.	.	.	32FJJJ	.	.	.	.	.	.	.	.	.	.	.	.	.	.	.	.	.	.	.	.	.	.	.
*	*	*	*	*	*	*	*	*	*	*	*	*	*	*	*	*	*	*	*	*	*	*	*	*	*	*	*	*	*	*Xtremolo	*	*	*	*	*	*	*	*	*	*	*	*	*	*	*	*	*	*	*	*	*	*	*
.	.	.	.	16CnJk)	.	16F#XJk)	.	16cnJk)	.	16cnJk)	.	16f#XJk)	.	16cc#XJk)	.	16ff#XJk)	.	16ff#XJk)	.	.	.	.	.	.	.	.	.	.	.	[16FJk	.	16CJk)	.	16F#XJk)	.	16F#XJk)	.	.	.	.	.	.	.	.	.	.	.	.	.	.	.	.	.
!	!	!	!	!	!	!	!	!	!	!	!	!	!	!	!	!	!	!	!	!	!	!	!	!	!	!	!LO:DY:ed=brack	!	!	!	!	!	!	!	!	!	!	!	!	!	!	!	!	!	!	!	!	!	!	!	!	!	!
.	.	.	.	8C#X'L	.	8C#X'L	.	8G#X'L	.	8G#X'L	.	8ccn'L	.	8ccn'L	.	8ccc'L	.	8ccc'L	.	.	.	.	.	6c#])	.	8Re/	pp	8r	.	16F']	.	8C#X'L	.	8G#X'L	.	8G#X'L	.	.	.	8e^^L	.	8e^^L	.	.	.	.	.	.	.	.	.	.	.
.	.	.	.	.	.	.	.	.	.	.	.	.	.	.	.	.	.	.	.	.	.	.	.	.	.	.	.	.	.	16r	.	.	.	.	.	.	.	.	.	.	.	.	.	.	.	.	.	.	.	.	.	.	.
16DDDLL	.	.	.	16D'L	.	16D'L	.	16A#X'L	.	16A#X'L	.	16d'L	.	16d'L	.	16dd'L	.	16dd'L	.	.	.	.	.	.	.	8r	.	8Re'/	.	8r	.	(16DL	.	(16A#X'L	.	(16A#X'L	.	.	.	16g#X'L	.	16g#X'L	.	.	.	.	.	.	.	.	.	.	.
.	.	.	.	.	.	.	.	.	.	.	.	.	.	.	.	.	.	.	.	.	.	.	.	(6d	.	.	.	.	.	.	.	.	.	.	.	.	.	.	.	.	.	.	.	.	.	.	.	.	.	.	.	.	.
16DDD#XJJ)	.	.	.	16D#X'JJ	.	16D#X'JJ	.	16cJJ	.	16cJJ	.	16c'JJ	.	16c'JJ	.	16cc'JJ	.	16cc'JJ	.	.	.	.	.	.	.	.	.	.	.	.	.	16D#XJJ)	.	16cn'JJ)	.	16cn'JJ)	.	.	.	16e'JJ	.	16e'JJ	.	.	.	.	.	.	.	.	.	.	.
=	=	=	=	=	=	=	=	=	=	=	=	=	=	=	=	=	=	=	=	=	=	=	=	=-	=	=	=	=	=	=	=	=	=	=	=	=	=	=	=	=	=	=	=	=	=	=	=	=	=	=	=	=	=
(8EEE^^L	.	16EEEKL	.	8E'L	.	8E'L	.	8d'L	.	8g#X'L	.	8c#X'L	.	8c#X'L	.	8gg#X'L	.	8gg#X'L	.	1c#_	.	1d#_	.	.	.	1r	.	8r	.	4r	.	8E'L	.	8d'L	.	8d'L	.	1r	.	8BX'L	.	8BX'L	.	1r	.	1r	.	4r	.	1r	.	4r	.
.	.	8DD#X	.	.	.	.	.	.	.	.	.	.	.	.	.	.	.	.	.	.	.	.	.	.	.	.	.	.	.	.	.	.	.	.	.	.	.	.	.	.	.	.	.	.	.	.	.	.	.	.	.	.	.
.	.	.	.	.	.	.	.	.	.	.	.	.	.	.	.	.	.	.	.	.	.	.	.	6B#)	.	.	.	.	.	.	.	.	.	.	.	.	.	.	.	.	.	.	.	.	.	.	.	.	.	.	.	.	.
8EEE#X^^)	.	.	.	8E#X'	.	8E#X'	.	8e'	.	8cc#X'J	.	8d#X'J	.	8d#X'J	.	8ccc#X'J	.	8ccc#X'J	.	.	.	.	.	.	.	.	.	8Re'/L	.	.	.	8E#X'J	.	8e'J	.	8e'J	.	.	.	8g#X^^J	.	8g#X^^J	.	.	.	.	.	.	.	.	.	.	.
.	.	[16EEJk	.	.	.	.	.	.	.	.	.	.	.	.	.	.	.	.	.	.	.	.	.	.	.	.	.	.	.	.	.	.	.	.	.	.	.	.	.	.	.	.	.	.	.	.	.	.	.	.	.	.	.
=-	=-	=-	=-	=-	=-	=-	=-	=-	=-	=-	=-	=-	=-	=-	=-	=-	=-	=-	=-	=-	=-	=-	=-	=	=-	=-	=-	=-	=-	=-	=-	=-	=-	=-	=-	=-	=-	=-	=-	=-	=-	=-	=-	=-	=-	=-	=-	=-	=-	=-	=-	=-	=-
8FFF#X'	.	16EEKL]	.	8F#X'	.	8F#X'	.	8f#X'	.	8b'L	.	8gn'L	.	8gn'L	.	8bb'L	.	8bb'L	.	.	.	.	.	(8c#XL	.	.	.	8r	.	8r	.	8F#X'L	.	8f#X'L	.	8f#X'L	.	.	.	8e^^L	.	8e^^L	.	.	.	.	.	8r	.	.	.	8r	.
.	.	8EE#X	.	.	.	.	.	.	.	.	.	.	.	.	.	.	.	.	.	.	.	.	.	.	.	.	.	.	.	.	.	.	.	.	.	.	.	.	.	.	.	.	.	.	.	.	.	.	.	.	.	.	.
!	!	!	!	!	!	!	!	!	!	!	!	!	!	!	!	!	!	!	!	!	!	!	!	!	!	!	!	!	!	!	!	!	!	!	!	!	!	!	!	!	!	!	!	!	!	!	!	!	!	!	!	!LO:TX:a:t=a 2	!
*	*	*	*	*	*	*	*	*	*	*	*	*	*	*	*	*	*	*	*	*	*	*	*	*	*	*	*	*	*	*tremolo	*	*	*	*	*	*	*	*	*	*	*	*	*	*	*	*	*	*	*	*	*	*	*
(8GGG^^J	.	.	.	(8Gn^^J	.	(8Gn^^J	.	[8A#X'^^J	.	[8gn^^J	.	(8G#X^^J	.	(8G#X^^J	.	([8a#X^^J	.	([8a#X^^J	.	.	.	.	.	8dJ	.	.	.	8Re'/J	.	[32F	.	(8G^^J	.	(8g^^J	.	(8g^^J	.	.	.	16g#'L	.	16g#'L	.	.	.	.	.	8a	mp	.	.	(8ddd	f
.	.	.	.	.	.	.	.	.	.	.	.	.	.	.	.	.	.	.	.	.	.	.	.	.	.	.	.	.	.	32F	.	.	.	.	.	.	.	.	.	.	.	.	.	.	.	.	.	.	.	.	.	.	.
.	.	[16FF#XJk	.	.	.	.	.	.	.	.	.	.	.	.	.	.	.	.	.	.	.	.	.	.	.	.	.	.	.	32F	.	.	.	.	.	.	.	.	.	16e'JJ	.	16e'JJ	.	.	.	.	.	.	.	.	.	.	.
.	.	.	.	.	.	.	.	.	.	.	.	.	.	.	.	.	.	.	.	.	.	.	.	.	.	.	.	.	.	32F	.	.	.	.	.	.	.	.	.	.	.	.	.	.	.	.	.	.	.	.	.	.	.
*	*	*	*	*	*	*	*	*	*	*	*	*	*	*	*	*	*	*	*	*	*	*	*	*	*	*	*	*	*	*Xtremolo	*	*	*	*	*	*	*	*	*	*	*	*	*	*	*	*	*	*	*	*	*	*	*
8GGG#X'L)	.	16FF#KL]	.	8G#X'L)	.	8G#X'L)	.	16A#LL]	.	16g#XLL	.	8An'L)	.	8An'L)	.	16a#LL]	.	16a#LL]	.	.	.	.	.	[4B#X	.	.	.	8r	.	16FL]	.	8G#X'L)	.	8g#X'L)	.	8g#X'L)	.	.	.	8B^^L	.	8B^^L	.	.	.	.	.	8a#XL	.	.	.	8ddd-XL)	.
.	.	8GG	.	.	.	.	.	16B'	.	16B'	.	.	.	.	.	16b')	.	16b')	.	.	.	.	.	.	.	.	.	.	.	[16F	.	.	.	.	.	.	.	.	.	.	.	.	.	.	.	.	.	.	.	.	.	.	.
((8EEE	.	.	.	8En'	.	8En'	.	16d-X	.	16d-X	.	8d#X'J	.	8d#X'J	.	16dd-X	.	16dd-X	.	.	.	.	.	.	.	.	.	8Re'/	.	8F'J]	.	((8En^^	.	((8e^^	.	((8e^^	.	.	.	8g#^^J	.	8g#^^J	.	.	.	.	.	[8bXJ	.	.	.	8ccc'	.
.	.	16FFJk	.	.	.	.	.	[16cnJJ	.	[16cnJJ	.	.	.	.	.	[16ccnJJ	.	[16ccnJJ	.	.	.	.	.	.	.	.	.	.	.	.	.	.	.	.	.	.	.	.	.	.	.	.	.	.	.	.	.	.	.	.	.	.	.
8EEE#X')	.	4EE	.	8E#X'	.	8E#X'	.	8cL]	.	8cL]	.	8g-X'L	.	8g-X'L	.	8ccL]	.	8ccL]	.	.	.	.	.	6B#])	.	.	.	8r	.	4r	.	8E#X')	.	8e#X')	.	8e#X')	.	.	.	8e^^L	.	8e^^L	.	.	.	.	.	16bLL]	.	.	.	8bb'	.
.	.	.	.	.	.	.	.	.	.	.	.	.	.	.	.	.	.	.	.	.	.	.	.	.	.	.	.	.	.	.	.	.	.	.	.	.	.	.	.	.	.	.	.	.	.	.	.	16ccJ	.	.	.	.	.
8FFF#X'J)	.	.	.	8F#X'J	.	8F#X'J	.	[8A#XJ	.	[8A#XJ	.	8fn'J	.	8fn'J	.	[8a#XJ	.	[8a#XJ	.	.	.	.	.	.	.	.	.	8Re'/	.	.	.	8F#X'J)	.	8f#X'J)	.	8f#X'J)	.	.	.	16g#'L	.	16g#'L	.	.	.	.	.	[8cc#XJ	.	.	.	8bb-X'J	.
.	.	.	.	.	.	.	.	.	.	.	.	.	.	.	.	.	.	.	.	.	.	.	.	(6c#	.	.	.	.	.	.	.	.	.	.	.	.	.	.	.	.	.	.	.	.	.	.	.	.	.	.	.	.	.
.	.	.	.	.	.	.	.	.	.	.	.	.	.	.	.	.	.	.	.	.	.	.	.	.	.	.	.	.	.	.	.	.	.	.	.	.	.	.	.	16e'JJ	.	16e'JJ	.	.	.	.	.	.	.	.	.	.	.
!	!	!	!	!	!	!	!	!	!	!	!	!	!	!	!	!	!	!	!	!	!	!	!	!	!	!	!	!	!	!	!	!	!	!	!	!	!	!	!	!LO:TX:a:B:t=3.	!	!LO:TX:a:B:t=+ 4.	!	!	!	!	!	!	!	!	!	!	!
!!LO:REH:t=J
=	=	=	=	=	=	=	=	=	=	=	=	=	=	=	=	=	=	=	=	=	=	=	=	=-	=	=	=	=	=	=	=	=	=	=	=	=	=	=	=	=	=	=	=	=	=	=	=	=	=	=	=	=	=
((8DD^^L	.	(8.C#XL	.	((8Dn^^L	.	((8Dn^^L	.	16A#KL]	.	16A#KL]	.	8.c#XL	.	8.c#XL	.	16a#KL]	.	16a#KL]	.	1c#_	.	1d#_	.	.	.	1r	.	8r	.	8F'^^	p	((8Dn^^L	.	((8dn^^L	.	((8dn^^L	.	8r	.	16BX'KL	.	8BX'L	.	((8D^^L	f	(8c#X^^L	f	16cc#LL]	.	1r	.	8aa'L	.
.	.	.	.	.	.	.	.	8B	.	8B	.	.	.	.	.	[8.bnJ	.	[8.bnJ	.	.	.	.	.	.	.	.	.	.	.	.	.	.	.	.	.	.	.	.	.	8d^^	.	.	.	.	.	.	.	16dd	.	.	.	.	.
.	.	.	.	.	.	.	.	.	.	.	.	.	.	.	.	.	.	.	.	.	.	.	.	6d)	.	.	.	.	.	.	.	.	.	.	.	.	.	.	.	.	.	.	.	.	.	.	.	.	.	.	.	.	.
8DD#X')	.	.	.	8D#X')	.	8D#X')	.	.	.	.	.	.	.	.	.	.	.	.	.	.	.	.	.	.	.	.	.	8Re'/L	.	8r	.	8D#X')	.	8d#X')	.	8d#X')	.	8g'	f	.	.	8B^^J	.	8D#X')	.	16dnL)	.	16ee-	.	.	.	8aa-X'	.
.	.	16EEJk)	.	.	.	.	.	16B-XJk	.	16B-XJk	.	[16cnJk	.	[16cnJk	.	.	.	.	.	.	.	.	.	.	.	.	.	.	.	.	.	.	.	.	.	.	.	.	.	[16d#X^^Jk	.	.	.	.	.	16D#X'JJ	.	[16eeXJJ	.	.	.	.	.
=-	=-	=-	=-	=-	=-	=-	=-	=-	=-	=-	=-	=-	=-	=-	=-	=-	=-	=-	=-	=-	=-	=-	=-	=	=-	=-	=-	=-	=-	=-	=-	=-	=-	=-	=-	=-	=-	=-	=-	=-	=-	=-	=-	=-	=-	=-	=-	=-	=-	=-	=-	=-	=-
8EE'J)	.	8D#XL	.	8En'J)	.	8En'J)	.	4Fn	.	4Fn	.	16cLL]	.	16cLL]	.	16bLL]	.	16bLL]	.	.	.	.	.	(8eL	.	.	.	8r	.	8r	.	8E')	.	8e')	.	8e')	.	8cc'L	.	16d#KL]	.	[4e^^	.	8E')	.	8EL	.	8eeL]	.	.	.	8gg'	.
.	.	.	.	.	.	.	.	.	.	.	.	16e-XJ	.	16e-XJ	.	16ee-XJ	.	16ee-XJ	.	.	.	.	.	.	.	.	.	.	.	.	.	.	.	.	.	.	.	.	.	8e	.	.	.	.	.	.	.	.	.	.	.	.	.
((8CC^^L	.	8C#XJ	.	((8Cn^^L	.	((8Cn^^L	.	.	.	.	.	[8dJ	.	[8dJ	.	[8ddJ	.	[8ddJ	.	.	.	.	.	8e-X	.	.	.	8Re'/J	.	8F'^^	.	((8Cn^^J	.	((8c^^J	.	((8c^^J	.	16ee'L	.	.	.	.	.	((8C^^J	.	(8Bn^^J	.	16ffL	.	.	.	8gg-X'J	.
.	.	.	.	.	.	.	.	.	.	.	.	.	.	.	.	.	.	.	.	.	.	.	.	.	.	.	.	.	.	.	.	.	.	.	.	.	.	16cc'JJ	.	[16cJk	.	.	.	.	.	.	.	16ee-JJ	.	.	.	.	.
8CC#X')	.	(8.CL	.	8C#X')	.	8C#X')	.	8cn	.	8cn	.	8dL]	.	8dL]	.	8ddL]	.	8ddL]	.	.	.	.	.	8d	.	.	.	8r	.	4r	.	8C#X'L)	.	8c#X'L)	.	8c#X'L)	.	8g'L	.	16cKL]	.	16e]	.	8C#X'L)	.	16cnLL)	.	8.eeXL	.	.	.	8ff'L	.
.	.	.	.	.	.	.	.	.	.	.	.	.	.	.	.	.	.	.	.	.	.	.	.	.	.	.	.	.	.	.	.	.	.	.	.	.	.	.	.	8c#X	.	8r	.	.	.	16C#X'J	.	.	.	.	.	.	.
8DD'J)	.	.	.	8Dn'J)	.	8Dn'J)	.	4Bn	.	4Bn	.	8c#X	.	8c#X	.	8cc#X	.	8cc#X	.	.	.	.	.	[8c#XJ	.	.	.	8Re'/	.	.	.	8Dn')	.	8dn')	.	8dn')	.	8ee'J	.	.	.	.	.	8Dn')	.	8DnJ	.	.	.	.	.	8bb-X'	.
.	.	16EE-XJk)	.	.	.	.	.	.	.	.	.	.	.	.	.	.	.	.	.	.	.	.	.	.	.	.	.	.	.	.	.	.	.	.	.	.	.	.	.	[16dJk	.	16r	.	.	.	.	.	16ffJk	.	.	.	.	.
((8AAA#X^^L	.	(8.AAL	.	((8AA#X^^L	.	((8AA#X^^L	.	.	.	.	.	8d	.	8d	.	8dd	.	8dd	.	.	.	.	.	6c#])	.	.	.	8r	.	8F'^^	.	((8AA#X^^	.	((8A#X^^	.	((8A#X^^	.	8cc'L	.	16dKL]	.	4r	.	((8AA#X^^	.	(8An^^L	.	16ee-KL	.	.	.	8aan'	.
.	.	.	.	.	.	.	.	.	.	.	.	.	.	.	.	.	.	.	.	.	.	.	.	.	.	.	.	.	.	.	.	.	.	.	.	.	.	.	.	8B-	.	.	.	.	.	.	.	8.eeXJ	.	.	.	.	.
8BBB'J)	.	.	.	8BB'J)	.	8BB'J)	.	[8D	.	[8D	.	[8d#XJ	.	[8d#XJ	.	[8dd#XJ	.	[8dd#XJ	.	.	.	.	.	.	.	.	.	8Re'/	.	8r	.	8BB'J)	.	8B'J)	.	8B'J)	.	16ee'L	.	.	.	.	.	8BBn'J)	.	16A#XL)	.	.	.	.	.	8ggn'J	.
.	.	.	.	.	.	.	.	.	.	.	.	.	.	.	.	.	.	.	.	.	.	.	.	(6d	.	.	.	.	.	.	.	.	.	.	.	.	.	.	.	.	.	.	.	.	.	.	.	.	.	.	.	.	.
.	.	16CCJk)	.	.	.	.	.	.	.	.	.	.	.	.	.	.	.	.	.	.	.	.	.	.	.	.	.	.	.	.	.	.	.	.	.	.	.	16cc'JJ	.	[16BXJk	.	.	.	.	.	16BB'JJ	.	.	.	.	.	.	.
=	=	=	=	=	=	=	=	=	=	=	=	=	=	=	=	=	=	=	=	=	=	=	=	=-	=	=	=	=	=	=	=	=	=	=	=	=	=	=	=	=	=	=	=	=	=	=	=	=	=	=	=	=	=
8CC'L)	.	4BB	.	8C'L)	.	8C'L)	.	4D]	.	4D]	.	4d#]	.	4d#]	.	4dd#]	.	4dd#]	.	1c#_	.	1d#_	.	.	.	1r	.	8r	.	8r	.	8C')	.	8c')	.	8c')	.	8g'L	.	16BKL]	.	1r	.	8Cn'L)	.	8CnL	.	8ff#XL	.	2r	.	8ff#XL	.
.	.	.	.	.	.	.	.	.	.	.	.	.	.	.	.	.	.	.	.	.	.	.	.	.	.	.	.	.	.	.	.	.	.	.	.	.	.	.	.	8c#	.	.	.	.	.	.	.	.	.	.	.	.	.
.	.	.	.	.	.	.	.	.	.	.	.	.	.	.	.	.	.	.	.	.	.	.	.	6B#X)	.	.	.	.	.	.	.	.	.	.	.	.	.	.	.	.	.	.	.	.	.	.	.	.	.	.	.	.	.
((8GGG#X^^	.	.	.	((8GG#X^^	.	((8GG#X^^	.	.	.	.	.	.	.	.	.	.	.	.	.	.	.	.	.	.	.	.	.	8Re'/L	.	8F'	.	((8GG#X^^L	.	((8G#X^^L	.	((8G#X^^L	.	8ee'J	.	.	.	.	.	((8GG#X^^	.	(8Gn^^J	.	16bXL	<	.	.	16bL	.
.	.	.	.	.	.	.	.	.	.	.	.	.	.	.	.	.	.	.	.	.	.	.	.	.	.	.	.	.	.	.	.	.	.	.	.	.	.	.	.	[16G#XJk	.	.	.	.	.	.	.	[16ccJJ	.	.	.	[16ccJJ	.
=-	=-	=-	=-	=-	=-	=-	=-	=-	=-	=-	=-	=-	=-	=-	=-	=-	=-	=-	=-	=-	=-	=-	=-	=	=-	=-	=-	=-	=-	=-	=-	=-	=-	=-	=-	=-	=-	=-	=-	=-	=-	=-	=-	=-	=-	=-	=-	=-	=-	=-	=-	=-	=-
8AAA')	.	4r	.	8AAn')	.	8AAn')	.	8G#XL	.	8G#XL	.	16fnKL	.	16fnKL	.	16ffnKL	.	16ffnKL	.	.	.	.	.	(6c#X	.	.	.	8r	.	4r	.	8AAn')	.	8An')	.	8An')	.	16r	.	16G#KL]	.	.	.	8AAn')	.	16G#XLL)	.	8ccL]	.	.	.	8ccL]	.
.	.	.	.	.	.	.	.	.	.	.	.	8.enJ	.	8.enJ	.	8.eenJ	.	8.eenJ	.	.	.	.	.	.	.	.	.	.	.	.	.	.	.	.	.	.	.	16d'LL	.	8A	.	.	.	.	.	16AA'J	.	.	.	.	.	.	.
8BBB-X'J)	.	.	.	8BB-X'J)	.	8BB-X'J)	.	8FnJ	.	8FnJ	.	.	.	.	.	.	.	.	.	.	.	.	.	.	.	.	.	8Re'/J	.	.	.	8BB-X'J)	.	8B-X'J)	.	8B-X'J)	.	16b'	.	.	.	.	.	8BB-X'J)	.	8BB-XJ	.	8ddJ	.	.	.	8ddJ	.
.	.	.	.	.	.	.	.	.	.	.	.	.	.	.	.	.	.	.	.	.	.	.	.	6d	.	.	.	.	.	.	.	.	.	.	.	.	.	.	.	.	.	.	.	.	.	.	.	.	.	.	.	.	.
.	.	.	.	.	.	.	.	.	.	.	.	.	.	.	.	.	.	.	.	.	.	.	.	.	.	.	.	.	.	.	.	.	.	.	.	.	.	16d'JJ	.	16B-Jk	.	.	.	.	.	.	.	.	.	.	.	.	.
8AAA'	.	8AAA	.	8AA'	.	8AA'	.	8g-XL	.	8g-XL	.	8eL	.	8eL	.	8gg-XL	.	8gg-XL	.	.	.	.	.	.	.	.	.	2r	.	2r	.	2r	.	8A'	mp	2r	.	4g	.	16A-XKL	.	.	.	2r	.	2r	.	(4.aa-X	f [	(4.ff 4.aa-X	mf	(4.aa-X	ff
.	.	.	.	.	.	.	.	.	.	.	.	.	.	.	.	.	.	.	.	.	.	.	.	.	.	.	.	.	.	.	.	.	.	.	.	.	.	.	.	8A-	.	.	.	.	.	.	.	.	.	.	.	.	.
.	.	.	.	.	.	.	.	.	.	.	.	.	.	.	.	.	.	.	.	.	.	.	.	[6B#X	.	.	.	.	.	.	.	.	.	.	.	.	.	.	.	.	.	.	.	.	.	.	.	.	.	.	.	.	.
8r	.	8r	.	8r	.	8r	.	8f	.	8f	.	8ee-X	.	8ee-X	.	8ff	.	8ff	.	.	.	.	.	.	.	.	.	.	.	.	.	.	.	8r	.	.	.	.	.	.	.	.	.	.	.	.	.	.	.	.	.	.	.
.	.	.	.	.	.	.	.	.	.	.	.	.	.	.	.	.	.	.	.	.	.	.	.	.	.	.	.	.	.	.	.	.	.	.	.	.	.	.	.	[16A-Jk	.	.	.	.	.	.	.	.	.	.	.	.	.
!	!	!LO:TX:a:t=pizz.	!	!	!	!	!	!	!	!	!	!	!	!	!	!	!	!	!	!	!	!	!	!	!	!	!	!	!	!	!	!	!	!	!	!	!	!	!	!	!	!	!	!	!	!	!	!	!	!	!	!	!
4r	.	8GG'	mf	4r	.	4r	.	8e	.	8e	.	8dn	.	8dn	.	8ee	.	8ee	.	.	.	.	.	6B#])	.	.	.	.	.	.	.	.	.	8Gn'	.	.	.	4r	.	8A-L]	.	.	.	.	.	.	.	.	.	.	.	.	.
.	.	8r	.	.	.	.	.	[8e-XJ	.	[8e-XJ	.	[8ddnJ	.	[8ddnJ	.	[8ee-XJ	.	[8ee-XJ	.	.	.	.	.	.	.	.	.	.	.	.	.	.	.	8r	.	.	.	.	.	16A-L	.	.	.	.	.	.	.	8gg)	.	8een 8gg)	.	8gg)	.
.	.	.	.	.	.	.	.	.	.	.	.	.	.	.	.	.	.	.	.	.	.	.	.	(6c#	.	.	.	.	.	.	.	.	.	.	.	.	.	.	.	.	.	.	.	.	.	.	.	.	.	.	.	.	.
.	.	.	.	.	.	.	.	.	.	.	.	.	.	.	.	.	.	.	.	.	.	.	.	.	.	.	.	.	.	.	.	.	.	.	.	.	.	.	.	[16A-JJ	.	.	.	.	.	.	.	.	.	.	.	.	.
=	=	=	=	=	=	=	=	=	=	=	=	=	=	=	=	=	=	=	=	=	=	=	=	=-	=	=	=	=	=	=	=	=	=	=	=	=	=	=	=	=	=	=	=	=	=	=	=	=	=	=	=	=	=
1r	.	8GG-X'	.	1r	.	1r	.	16e-LL]	.	16e-LL]	.	16ddLL]	.	16ddLL]	.	16ee-LL]	.	16ee-LL]	.	1c#_	.	1d#_	.	.	.	1r	.	1r	.	1r	.	1r	.	8G-X'	.	1r	.	1r	.	16A-KL]	.	1r	.	1r	.	1r	.	1r	.	(8ee-XL 8gg-X	.	(8gg-XL	.
.	.	.	.	.	.	.	.	16cJ	.	16cJ	.	16b-XJ	.	16b-XJ	.	16ccJ	.	16ccJ	.	.	.	.	.	.	.	.	.	.	.	.	.	.	.	.	.	.	.	.	.	[8A-X^^	.	.	.	.	.	.	.	.	.	.	.	.	.
.	.	.	.	.	.	.	.	.	.	.	.	.	.	.	.	.	.	.	.	.	.	.	.	6B#)	.	.	.	.	.	.	.	.	.	.	.	.	.	.	.	.	.	.	.	.	.	.	.	.	.	.	.	.	.
.	.	8r	.	.	.	.	.	[8d-XJ	.	[8d-XJ	.	8BnJ	.	8BnJ	.	[8dd-XJ	.	[8dd-XJ	.	.	.	.	.	.	.	.	.	.	.	.	.	.	.	8r	.	.	.	.	.	.	.	.	.	.	.	.	.	.	.	8ggnJ 8bb-X)	.	8bb-XJ)	.
.	.	.	.	.	.	.	.	.	.	.	.	.	.	.	.	.	.	.	.	.	.	.	.	.	.	.	.	.	.	.	.	.	.	.	.	.	.	.	.	16A-'Jk]	.	.	.	.	.	.	.	.	.	.	.	.	.
!	!	!	!	!	!	!	!	!	!	!	!	!	!	!	!	!	!	!	!	!	!	!	!	!	!	!	!	!	!	!	!	!	!	!	!	!	!	!	!	!	!	!	!	!	!	!	!	!	!	!LO:TX:a:t=a 2	!	!	!
=-	=-	=-	=-	=-	=-	=-	=-	=-	=-	=-	=-	=-	=-	=-	=-	=-	=-	=-	=-	=-	=-	=-	=-	=	=-	=-	=-	=-	=-	=-	=-	=-	=-	=-	=-	=-	=-	=-	=-	=-	=-	=-	=-	=-	=-	=-	=-	=-	=-	=-	=-	=-	=-
.	.	8GG'	.	.	.	.	.	8d-L]	.	8d-L]	.	8dL	.	8dL	.	8dd-L]	.	8dd-L]	.	.	.	.	.	(6d	.	.	.	.	.	.	.	.	.	8Gn'	.	.	.	.	.	[8A-^^L	.	.	.	.	.	.	.	.	.	(8.cccL	.	(8.eee-XL	.
.	.	8r	.	.	.	.	.	8cJ	.	8cJ	.	8bnJ	.	8bnJ	.	8ccJ	.	8ccJ	.	.	.	.	.	.	.	.	.	.	.	.	.	.	.	8r	.	.	.	.	.	16A-'L]	.	.	.	.	.	.	.	.	.	.	.	.	.
.	.	.	.	.	.	.	.	.	.	.	.	.	.	.	.	.	.	.	.	.	.	.	.	6B#X	.	.	.	.	.	.	.	.	.	.	.	.	.	.	.	.	.	.	.	.	.	.	.	.	.	.	.	.	.
.	.	.	.	.	.	.	.	.	.	.	.	.	.	.	.	.	.	.	.	.	.	.	.	.	.	.	.	.	.	.	.	.	.	.	.	.	.	.	.	[16A-^^JJ	.	.	.	.	.	.	.	.	.	16ccc#XJk)	.	16eeenJk)	.
.	.	16r	.	.	.	.	.	8c-XL	.	8c-XL	.	8cnL	.	8cnL	.	8cc-XL	.	8cc-XL	.	.	.	.	.	.	.	.	.	.	.	.	.	.	.	16r	.	.	.	.	.	16A-'KL]	.	.	.	.	.	.	.	.	.	2ddd	.	2fff	.
.	.	8GG-X'	.	.	.	.	.	.	.	.	.	.	.	.	.	.	.	.	.	.	.	.	.	.	.	.	.	.	.	.	.	.	.	8G-X'	.	.	.	.	.	[8A-^^	.	.	.	.	.	.	.	.	.	.	.	.	.
.	.	.	.	.	.	.	.	.	.	.	.	.	.	.	.	.	.	.	.	.	.	.	.	6c#X)	.	.	.	.	.	.	.	.	.	.	.	.	.	.	.	.	.	.	.	.	.	.	.	.	.	.	.	.	.
.	.	.	.	.	.	.	.	8b-X	.	8dd-X	.	8ccJ	.	8ccJ	.	8ddd-X	.	8ddd-X	.	.	.	.	.	.	.	.	.	.	.	.	.	.	.	.	.	.	.	.	.	.	.	.	.	.	.	.	.	.	.	.	.	.	.
.	.	16r	.	.	.	.	.	.	.	.	.	.	.	.	.	.	.	.	.	.	.	.	.	.	.	.	.	.	.	.	.	.	.	16r	.	.	.	.	.	16A-'Jk]	.	.	.	.	.	.	.	.	.	.	.	.	.
!	!	!	!	!	!	!	!	!	!	!	!	!	!	!	!	!	!	!	!	!	!	!	!	!LO:TX:t=P:problem:Hanging slur not implemented yet	!	!	!	!	!	!	!	!	!	!	!	!	!	!	!	!	!	!	!	!	!	!	!	!	!	!	!	!	!
.	.	8FF'L	.	.	.	.	.	8an	.	8ccn	.	8BnL	.	8BnL	.	8ccc	.	8ccc	.	.	.	.	.	(8dL	.	.	.	.	.	.	.	.	.	8F'L	.	.	.	.	.	[8A-^^L	.	.	.	.	.	.	.	.	.	.	.	.	.
.	.	16r	.	.	.	.	.	8a-XJ	.	8cc-XJ	.	8b-XJ	.	8b-XJ	.	8ccc-XJ	.	8ccc-XJ	.	.	.	.	.	8c#J	.	.	.	.	.	.	.	.	.	16r	.	.	.	.	.	16A-'L]	.	.	.	.	.	.	.	.	.	.	.	.	.
!	!	!	!	!	!	!	!	!	!	!	!	!	!	!	!	!	!	!	!	!	!	!	!	!	!	!	!	!	!	!	!	!	!	!LO:TX:t=P:problem:Hanging slur not implemented yet	!	!	!	!	!	!	!	!	!	!	!	!	!	!	!	!	!	!	!
.	.	16FF-X'Jk	.	.	.	.	.	.	.	.	.	.	.	.	.	.	.	.	.	.	.	.	.	.	.	.	.	.	.	.	.	.	.	(16F-XJk	.	.	.	.	.	[16A-^^JJ	.	.	.	.	.	.	.	.	.	.	.	.	.
=	=	=	=	=	=	=	=	=	=	=	=	=	=	=	=	=	=	=	=	=	=	=	=	=-	=	=	=	=	=	=	=	=	=	=	=	=	=	=	=	=	=	=	=	=	=	=	=	=	=	=	=	=	=
*-	*-	*-	*-	*-	*-	*-	*-	*-	*-	*-	*-	*-	*-	*-	*-	*-	*-	*-	*-	*-	*-	*-	*-	*-	*-	*-	*-	*-	*-	*-	*-	*-	*-	*-	*-	*-	*-	*-	*-	*-	*-	*-	*-	*-	*-	*-	*-	*-	*-	*-	*-	*-	*-
!!!system-decoration: [(s1,s2,s3,s4,s5)][([(s6,s7)]s8[(s9,s10,s11)])][(s12)][(s13,s14)][([(s15,s16,s17)][(s18,s19)][([(s20,s21)])][(s22,s23)][(s24,s25)][(s26,s27)])]

!!!RDF**kern: > = above
!!!RDF**kern: < = below
